!!!ONR: No. 5
!! Transcription 5.
!!!OTL: [not encoded]
!!!SINGER: [not encoded]
!!!PLACE: South America, Colombia, Evitar
!!!DATE [not encoded]
!! CODE: %=glide upward to next note
!! From George List, "Music and Poetry in a Colombian Village:
!! A Tri-Cultural Heritage"
!! Bloomington, Indiana: Indiana University Press, 1983
**kern
*clefG2
*k[]
*M2/2
*MM120
*>verse 1
=1-
{4dd
8dd
8dd
(8dd%
8gg)
8dd
8dd
=
(8b%
8dd)
8b
16a
16a
4g}
4r
=
{4dd
8dd
8dd
4dd
8dd
8dd
=
(8b%
8dd)
8b
16a
16a
4g}
8r
{8g
=
6g
6g
6a
4b
8b
8b
=
4b
16b
16a
8a
4g}
8r
{8g
=
4g
8g
8a
4b
8b
16b
16b
=
4b
16b
16a
8a
4g}
4r
=
*>verse 2
{4dd
8dd
8dd
(8dd%
8gg)
4dd
=
4dd
8b
8a
8g}
8r
4r
=
{4dd
8dd
8dd
(8dd%
8gg)
4dd
=
4dd
8b
8a
8g}
8r
8r
{8g
*M6/4
=
4g
4g
4a
4b
4b
4b
*M2/2
=
4b
8b
8a
4g}
8r
8r
{8g
=
4g
8g
8a
4b
8b
8b
=
4b
8b
8a
8g}
8r
4r
=
*>verse 3
*M7/8
{4dd
4dd
4.dd
*M2/2
=
(8b%
8dd)
8b
8a
8g
4g}
8r
=
{4dd
8dd
8r
8dd
8r
4r
=
(8b%
8dd)
8b
8a
8g
4g}
{8g
=
8g
4g
8a
4b
8b
8b
=
4b
6b
12a
8g}
8r
8r
{8g
=
8g
4g
8a
4b
8b
8b
=
4b
6b
12a
8g}
8r
4r
==
*-
